src/22/panel/xfpm-brightness-lcd.svg

<svg xmlns="http://www.w3.org/2000/svg" width="22" height="22" version="1.1">
 <defs>
  <style id="current-color-scheme" type="text/css">
   .ColorScheme-Text { color:#dfdfdf; } .ColorScheme-Highlight { color:#4285f4; }
  </style>
 </defs>
 <path style="fill:currentColor" class="ColorScheme-Text" d="m 11.00015,3.7210001 -2.1894998,2.2793 -2.8105001,0 0,2.8105 -2.2792999,2.1894999 2.2792999,2.2207 0,2.779 2.8105001,0 2.1894998,2.279 2.221,-2.279 2.779,0 0,-2.779 2.279,-2.2207 -2.279,-1.9999999 0,-3 -2.779,0 z m 0,3.2793 c 2.21,0 4,1.79 4,3.9999999 0,2.2097 -1.79,3.9997 -4,3.9997 -2.2099999,0 -3.9999999,-1.79 -3.9999999,-3.9997 0,-2.2099999 1.79,-3.9999999 3.9999999,-3.9999999 z m 0,1 c -1.6568999,0 -2.9999998,1.3431 -2.9999998,2.9999999 0,1.6569 1.3430999,2.9997 2.9999998,2.9997 z"/>
</svg>

<svg xmlns="http://www.w3.org/2000/svg" width="22" height="22"><defs><style id="current-color-scheme" type="text/css"></style></defs><path d="M11 3.721l-2.19 2.28H6v2.81L3.72 11 6 13.22V16h2.81L11 18.279 13.221 16h2.78v-2.779l2.278-2.22L16 9V6h-2.779zm0 3.28c2.21 0 4 1.79 4 4C15 13.21 13.21 15 11 15s-4-1.79-4-4 1.79-4 4-4zm0 1A3 3 0 1 0 11 14z" fill="currentColor" color="#bebebe"/></svg>
